webroot/img/iphone_mockup.svg

<svg width="258" height="447" viewBox="0 0 258 447" fill="none" xmlns="http://www.w3.org/2000/svg">
<g filter="url(#filter0_dii)">
<path fill-rule="evenodd" clip-rule="evenodd" d="M52.6767 48.1677C52.6749 32.1428 65.6642 19.1535 81.6891 19.1553L208.743 19.1694C224.768 19.1712 237.76 32.1634 237.762 48.1883L237.797 364.565C237.799 380.59 224.81 393.579 208.785 393.578L160.685 393.572L160.238 392.458L130.955 392.455L130.508 393.569L81.7306 393.564C65.7057 393.562 52.7135 380.57 52.7118 364.545L52.6767 48.1677Z" fill="#E3E8ED"/>
</g>
<g filter="url(#filter1_d)">
<rect width="162.732" height="349.238" rx="15.1774" transform="matrix(1 0.000110903 0.000110879 1 63.8509 31.9968)" fill="#E3E8ED"/>
</g>
<g filter="url(#filter2_i)">
<path d="M52.6437 114.536L51.9285 114.536C51.1889 114.536 50.5894 115.136 50.5894 115.875L50.5919 137.712C50.5919 138.451 51.1916 139.051 51.9312 139.051L52.6465 139.051L52.6437 114.536Z" fill="#E3E7EC"/>
</g>
<g filter="url(#filter3_i)">
<path d="M52.6476 146.49L51.9324 146.49C51.1928 146.49 50.5933 147.089 50.5933 147.829L50.5997 205.067C50.5998 205.806 51.1994 206.406 51.939 206.406L52.6543 206.406L52.6476 146.49Z" fill="#E3E7EC"/>
</g>
<rect width="162.373" height="288.7" rx="1.33918" transform="matrix(1 0.000110903 0.000110879 1 63.6636 63.8115)" fill="#F2F2F4"/>
<g filter="url(#filter4_ii)">
<rect width="53.7155" height="17.8514" rx="8.9257" transform="matrix(1 0.000110903 0.000110879 1 118.69 359.488)" fill="#E3E8ED"/>
</g>
<g filter="url(#filter5_ii)">
<path fill-rule="evenodd" clip-rule="evenodd" d="M115.573 49.6863C117.055 49.6865 118.256 48.4892 118.255 47.0123C118.255 45.5353 117.054 44.3378 115.573 44.3376C114.091 44.3374 112.89 45.5347 112.891 47.0117C112.891 48.4887 114.092 49.6861 115.573 49.6863Z" fill="#CDD5DD"/>
</g>
<g filter="url(#filter6_ii)">
<rect width="33.9485" height="6.54957" rx="3.12476" transform="matrix(1 0.000110918 0.000110866 1 128.539 43.7134)" fill="#CDD5DD"/>
</g>
<defs>
<filter id="filter0_dii" x="0.894915" y="0.853123" width="256.544" height="445.845" filterUnits="userSpaceOnUse" color-interpolation-filters="sRGB">
<feFlood flood-opacity="0" result="BackgroundImageFix"/>
<feColorMatrix in="SourceAlpha" type="matrix" values="0 0 0 0 0 0 0 0 0 0 0 0 0 0 0 0 0 0 127 0"/>
<feOffset dx="-16.0702" dy="17.4094"/>
<feGaussianBlur stdDeviation="17.8558"/>
<feColorMatrix type="matrix" values="0 0 0 0 0 0 0 0 0 0 0 0 0 0 0 0 0 0 0.5 0"/>
<feBlend mode="normal" in2="BackgroundImageFix" result="effect1_dropShadow"/>
<feBlend mode="normal" in="SourceGraphic" in2="effect1_dropShadow" result="shape"/>
<feColorMatrix in="SourceAlpha" type="matrix" values="0 0 0 0 0 0 0 0 0 0 0 0 0 0 0 0 0 0 127 0" result="hardAlpha"/>
<feOffset dx="-4.91034" dy="-14.2846"/>
<feGaussianBlur stdDeviation="8.92789"/>
<feComposite in2="hardAlpha" operator="arithmetic" k2="-1" k3="1"/>
<feColorMatrix type="matrix" values="0 0 0 0 1 0 0 0 0 1 0 0 0 0 1 0 0 0 1 0"/>
<feBlend mode="normal" in2="shape" result="effect2_innerShadow"/>
<feColorMatrix in="SourceAlpha" type="matrix" values="0 0 0 0 0 0 0 0 0 0 0 0 0 0 0 0 0 0 127 0" result="hardAlpha"/>
<feOffset dx="3.57116" dy="-1.78558"/>
<feGaussianBlur stdDeviation="3.12476"/>
<feComposite in2="hardAlpha" operator="arithmetic" k2="-1" k3="1"/>
<feColorMatrix type="matrix" values="0 0 0 0 0.776471 0 0 0 0 0.811765 0 0 0 0 0.854902 0 0 0 1 0"/>
<feBlend mode="normal" in2="effect2_innerShadow" result="effect3_innerShadow"/>
</filter>
<filter id="filter1_d" x="55.3711" y="23.517" width="179.731" height="366.215" filterUnits="userSpaceOnUse" color-interpolation-filters="sRGB">
<feFlood flood-opacity="0" result="BackgroundImageFix"/>
<feColorMatrix in="SourceAlpha" type="matrix" values="0 0 0 0 0 0 0 0 0 0 0 0 0 0 0 0 0 0 127 0"/>
<feOffset/>
<feGaussianBlur stdDeviation="4.24075"/>
<feColorMatrix type="matrix" values="0 0 0 0 0.894118 0 0 0 0 0.909804 0 0 0 0 0.929412 0 0 0 1 0"/>
<feBlend mode="normal" in2="BackgroundImageFix" result="effect1_dropShadow"/>
<feBlend mode="normal" in="SourceGraphic" in2="effect1_dropShadow" result="shape"/>
</filter>
<filter id="filter2_i" x="50.5894" y="114.536" width="2.05702" height="24.5149" filterUnits="userSpaceOnUse" color-interpolation-filters="sRGB">
<feFlood flood-opacity="0" result="BackgroundImageFix"/>
<feBlend mode="normal" in="SourceGraphic" in2="BackgroundImageFix" result="shape"/>
<feColorMatrix in="SourceAlpha" type="matrix" values="0 0 0 0 0 0 0 0 0 0 0 0 0 0 0 0 0 0 127 0" result="hardAlpha"/>
<feOffset/>
<feGaussianBlur stdDeviation="2.00878"/>
<feComposite in2="hardAlpha" operator="arithmetic" k2="-1" k3="1"/>
<feColorMatrix type="matrix" values="0 0 0 0 0.890196 0 0 0 0 0.909804 0 0 0 0 0.929412 0 0 0 1 0"/>
<feBlend mode="normal" in2="shape" result="effect1_innerShadow"/>
</filter>
<filter id="filter3_i" x="50.5933" y="146.49" width="2.06095" height="59.916" filterUnits="userSpaceOnUse" color-interpolation-filters="sRGB">
<feFlood flood-opacity="0" result="BackgroundImageFix"/>
<feBlend mode="normal" in="SourceGraphic" in2="BackgroundImageFix" result="shape"/>
<feColorMatrix in="SourceAlpha" type="matrix" values="0 0 0 0 0 0 0 0 0 0 0 0 0 0 0 0 0 0 127 0" result="hardAlpha"/>
<feOffset/>
<feGaussianBlur stdDeviation="4.24075"/>
<feComposite in2="hardAlpha" operator="arithmetic" k2="-1" k3="1"/>
<feColorMatrix type="matrix" values="0 0 0 0 0.890196 0 0 0 0 0.909804 0 0 0 0 0.929412 0 0 0 1 0"/>
<feBlend mode="normal" in2="shape" result="effect1_innerShadow"/>
</filter>
<filter id="filter4_ii" x="118.691" y="359.042" width="53.7155" height="18.7482" filterUnits="userSpaceOnUse" color-interpolation-filters="sRGB">
<feFlood flood-opacity="0" result="BackgroundImageFix"/>
<feBlend mode="normal" in="SourceGraphic" in2="BackgroundImageFix" result="shape"/>
<feColorMatrix in="SourceAlpha" type="matrix" values="0 0 0 0 0 0 0 0 0 0 0 0 0 0 0 0 0 0 127 0" result="hardAlpha"/>
<feOffset dy="-0.446395"/>
<feGaussianBlur stdDeviation="0.223197"/>
<feComposite in2="hardAlpha" operator="arithmetic" k2="-1" k3="1"/>
<feColorMatrix type="matrix" values="0 0 0 0 0.788235 0 0 0 0 0.819608 0 0 0 0 0.858824 0 0 0 1 0"/>
<feBlend mode="normal" in2="shape" result="effect1_innerShadow"/>
<feColorMatrix in="SourceAlpha" type="matrix" values="0 0 0 0 0 0 0 0 0 0 0 0 0 0 0 0 0 0 127 0" result="hardAlpha"/>
<feOffset dy="0.446395"/>
<feGaussianBlur stdDeviation="0.223197"/>
<feComposite in2="hardAlpha" operator="arithmetic" k2="-1" k3="1"/>
<feColorMatrix type="matrix" values="0 0 0 0 1 0 0 0 0 1 0 0 0 0 1 0 0 0 1 0"/>
<feBlend mode="normal" in2="effect1_innerShadow" result="effect2_innerShadow"/>
</filter>
<filter id="filter5_ii" x="112.891" y="43.8912" width="5.3648" height="6.24148" filterUnits="userSpaceOnUse" color-interpolation-filters="sRGB">
<feFlood flood-opacity="0" result="BackgroundImageFix"/>
<feBlend mode="normal" in="SourceGraphic" in2="BackgroundImageFix" result="shape"/>
<feColorMatrix in="SourceAlpha" type="matrix" values="0 0 0 0 0 0 0 0 0 0 0 0 0 0 0 0 0 0 127 0" result="hardAlpha"/>
<feOffset dy="-0.446395"/>
<feGaussianBlur stdDeviation="0.223197"/>
<feComposite in2="hardAlpha" operator="arithmetic" k2="-1" k3="1"/>
<feColorMatrix type="matrix" values="0 0 0 0 1 0 0 0 0 1 0 0 0 0 1 0 0 0 1 0"/>
<feBlend mode="normal" in2="shape" result="effect1_innerShadow"/>
<feColorMatrix in="SourceAlpha" type="matrix" values="0 0 0 0 0 0 0 0 0 0 0 0 0 0 0 0 0 0 127 0" result="hardAlpha"/>
<feOffset dy="0.446395"/>
<feGaussianBlur stdDeviation="0.223197"/>
<feComposite in2="hardAlpha" operator="arithmetic" k2="-1" k3="1"/>
<feColorMatrix type="matrix" values="0 0 0 0 0 0 0 0 0 0 0 0 0 0 0 0 0 0 0.5 0"/>
<feBlend mode="normal" in2="effect1_innerShadow" result="effect2_innerShadow"/>
</filter>
<filter id="filter6_ii" x="128.54" y="43.2673" width="33.9485" height="7.22223" filterUnits="userSpaceOnUse" color-interpolation-filters="sRGB">
<feFlood flood-opacity="0" result="BackgroundImageFix"/>
<feBlend mode="normal" in="SourceGraphic" in2="BackgroundImageFix" result="shape"/>
<feColorMatrix in="SourceAlpha" type="matrix" values="0 0 0 0 0 0 0 0 0 0 0 0 0 0 0 0 0 0 127 0" result="hardAlpha"/>
<feOffset dy="-0.446395"/>
<feGaussianBlur stdDeviation="0.223197"/>
<feComposite in2="hardAlpha" operator="arithmetic" k2="-1" k3="1"/>
<feColorMatrix type="matrix" values="0 0 0 0 1 0 0 0 0 1 0 0 0 0 1 0 0 0 1 0"/>
<feBlend mode="normal" in2="shape" result="effect1_innerShadow"/>
<feColorMatrix in="SourceAlpha" type="matrix" values="0 0 0 0 0 0 0 0 0 0 0 0 0 0 0 0 0 0 127 0" result="hardAlpha"/>
<feOffset dy="0.446395"/>
<feGaussianBlur stdDeviation="0.111599"/>
<feComposite in2="hardAlpha" operator="arithmetic" k2="-1" k3="1"/>
<feColorMatrix type="matrix" values="0 0 0 0 0 0 0 0 0 0 0 0 0 0 0 0 0 0 0.381058 0"/>
<feBlend mode="normal" in2="effect1_innerShadow" result="effect2_innerShadow"/>
</filter>
</defs>
</svg>

<svg width="258" height="447" viewBox="0 0 258 447" xmlns="http://www.w3.org/2000/svg">
  <defs>
    <filter id="drop-shadow" x="0" y="0" width="258" height="447" filterUnits="userSpaceOnUse" color-interpolation-filters="sRGB">
      <feFlood flood-opacity="0" result="BackgroundImageFix"/>
      <feColorMatrix in="SourceAlpha" values="0 0 0 0 0 0 0 0 0 0 0 0 0 0 0 0 0 0 127 0"/>
      <feOffset dx="-16.1" dy="17.4"/>
      <feGaussianBlur stdDeviation="17.9"/>
      <feColorMatrix values="0 0 0 0 0 0 0 0 0 0 0 0 0 0 0 0 0 0 0.25 0"/>
      <feBlend in2="BackgroundImageFix" result="effect1_dropShadow"/>
      <feBlend in="SourceGraphic" in2="effect1_dropShadow" result="shape"/>
      <feColorMatrix in="SourceAlpha" values="0 0 0 0 0 0 0 0 0 0 0 0 0 0 0 0 0 0 127 0" result="hardAlpha"/>
      <feOffset dx="-4.9" dy="-14.3"/>
      <feGaussianBlur stdDeviation="8.9"/>
      <feComposite in2="hardAlpha" operator="arithmetic" k2="-1" k3="1"/>
      <feColorMatrix values="0 0 0 0 1 0 0 0 0 1 0 0 0 0 1 0 0 0 1 0"/>
      <feBlend in2="shape" result="effect2_innerShadow"/>
      <feColorMatrix in="SourceAlpha" values="0 0 0 0 0 0 0 0 0 0 0 0 0 0 0 0 0 0 127 0" result="hardAlpha"/>
      <feOffset dx="3.6" dy="-1.8"/>
      <feGaussianBlur stdDeviation="3.1"/>
      <feComposite in2="hardAlpha" operator="arithmetic" k2="-1" k3="1"/>
      <feColorMatrix values="0 0 0 0 0.776471 0 0 0 0 0.811765 0 0 0 0 0.854902 0 0 0 1 0"/>
      <feBlend in2="effect2_innerShadow" result="effect3_innerShadow"/>
    </filter>
    <filter id="screen-shadow" x="55.4" y="23.5" width="179.7" height="366.2" filterUnits="userSpaceOnUse" color-interpolation-filters="sRGB">
      <feFlood flood-opacity="0" result="BackgroundImageFix"/>
      <feColorMatrix in="SourceAlpha" values="0 0 0 0 0 0 0 0 0 0 0 0 0 0 0 0 0 0 127 0"/>
      <feOffset/>
      <feGaussianBlur stdDeviation="4.2"/>
      <feColorMatrix values="0 0 0 0 0.894118 0 0 0 0 0.909804 0 0 0 0 0.929412 0 0 0 1 0"/>
      <feBlend in2="BackgroundImageFix" result="effect1_dropShadow"/>
      <feBlend in="SourceGraphic" in2="effect1_dropShadow" result="shape"/>
    </filter>
    <filter id="f2" x="50.6" y="114.5" width="2.1" height="24.5" filterUnits="userSpaceOnUse" color-interpolation-filters="sRGB">
      <feFlood flood-opacity="0" result="BackgroundImageFix"/>
      <feBlend in="SourceGraphic" in2="BackgroundImageFix" result="shape"/>
      <feColorMatrix in="SourceAlpha" values="0 0 0 0 0 0 0 0 0 0 0 0 0 0 0 0 0 0 127 0" result="hardAlpha"/>
      <feOffset/>
      <feGaussianBlur stdDeviation="2"/>
      <feComposite in2="hardAlpha" operator="arithmetic" k2="-1" k3="1"/>
      <feColorMatrix values="0 0 0 0 0.890196 0 0 0 0 0.909804 0 0 0 0 0.929412 0 0 0 1 0"/>
      <feBlend in2="shape" result="effect1_innerShadow"/>
    </filter>
    <filter id="f3" x="50.6" y="146.5" width="2.1" height="59.9" filterUnits="userSpaceOnUse" color-interpolation-filters="sRGB">
      <feFlood flood-opacity="0" result="BackgroundImageFix"/>
      <feBlend in="SourceGraphic" in2="BackgroundImageFix" result="shape"/>
      <feColorMatrix in="SourceAlpha" values="0 0 0 0 0 0 0 0 0 0 0 0 0 0 0 0 0 0 127 0" result="hardAlpha"/>
      <feOffset/>
      <feGaussianBlur stdDeviation="4.2"/>
      <feComposite in2="hardAlpha" operator="arithmetic" k2="-1" k3="1"/>
      <feColorMatrix values="0 0 0 0 0.890196 0 0 0 0 0.909804 0 0 0 0 0.929412 0 0 0 1 0"/>
      <feBlend in2="shape" result="effect1_innerShadow"/>
    </filter>
    <filter id="f4" x="118.7" y="359" width="53.7" height="18.7" filterUnits="userSpaceOnUse" color-interpolation-filters="sRGB">
      <feFlood flood-opacity="0" result="BackgroundImageFix"/>
      <feBlend in="SourceGraphic" in2="BackgroundImageFix" result="shape"/>
      <feColorMatrix in="SourceAlpha" values="0 0 0 0 0 0 0 0 0 0 0 0 0 0 0 0 0 0 127 0" result="hardAlpha"/>
      <feOffset dy="-.4"/>
      <feGaussianBlur stdDeviation=".2"/>
      <feComposite in2="hardAlpha" operator="arithmetic" k2="-1" k3="1"/>
      <feColorMatrix values="0 0 0 0 0.788235 0 0 0 0 0.819608 0 0 0 0 0.858824 0 0 0 1 0"/>
      <feBlend in2="shape" result="effect1_innerShadow"/>
      <feColorMatrix in="SourceAlpha" values="0 0 0 0 0 0 0 0 0 0 0 0 0 0 0 0 0 0 127 0" result="hardAlpha"/>
      <feOffset dy=".4"/>
      <feGaussianBlur stdDeviation=".2"/>
      <feComposite in2="hardAlpha" operator="arithmetic" k2="-1" k3="1"/>
      <feColorMatrix values="0 0 0 0 1 0 0 0 0 1 0 0 0 0 1 0 0 0 1 0"/>
      <feBlend in2="effect1_innerShadow" result="effect2_innerShadow"/>
    </filter>
    <filter id="f5" x="112.9" y="43.9" width="5.4" height="6.2" filterUnits="userSpaceOnUse" color-interpolation-filters="sRGB">
      <feFlood flood-opacity="0" result="BackgroundImageFix"/>
      <feBlend in="SourceGraphic" in2="BackgroundImageFix" result="shape"/>
      <feColorMatrix in="SourceAlpha" values="0 0 0 0 0 0 0 0 0 0 0 0 0 0 0 0 0 0 127 0" result="hardAlpha"/>
      <feOffset dy="-.4"/>
      <feGaussianBlur stdDeviation=".2"/>
      <feComposite in2="hardAlpha" operator="arithmetic" k2="-1" k3="1"/>
      <feColorMatrix values="0 0 0 0 1 0 0 0 0 1 0 0 0 0 1 0 0 0 1 0"/>
      <feBlend in2="shape" result="effect1_innerShadow"/>
      <feColorMatrix in="SourceAlpha" values="0 0 0 0 0 0 0 0 0 0 0 0 0 0 0 0 0 0 127 0" result="hardAlpha"/>
      <feOffset dy=".4"/>
      <feGaussianBlur stdDeviation=".2"/>
      <feComposite in2="hardAlpha" operator="arithmetic" k2="-1" k3="1"/>
      <feColorMatrix values="0 0 0 0 0 0 0 0 0 0 0 0 0 0 0 0 0 0 0.5 0"/>
      <feBlend in2="effect1_innerShadow" result="effect2_innerShadow"/>
    </filter>
    <filter id="f6" x="128.5" y="43.3" width="33.9" height="7.2" filterUnits="userSpaceOnUse" color-interpolation-filters="sRGB">
      <feFlood flood-opacity="0" result="BackgroundImageFix"/>
      <feBlend in="SourceGraphic" in2="BackgroundImageFix" result="shape"/>
      <feColorMatrix in="SourceAlpha" values="0 0 0 0 0 0 0 0 0 0 0 0 0 0 0 0 0 0 127 0" result="hardAlpha"/>
      <feOffset dy="-.4"/>
      <feGaussianBlur stdDeviation=".2"/>
      <feComposite in2="hardAlpha" operator="arithmetic" k2="-1" k3="1"/>
      <feColorMatrix values="0 0 0 0 1 0 0 0 0 1 0 0 0 0 1 0 0 0 1 0"/>
      <feBlend in2="shape" result="effect1_innerShadow"/>
      <feColorMatrix in="SourceAlpha" values="0 0 0 0 0 0 0 0 0 0 0 0 0 0 0 0 0 0 127 0" result="hardAlpha"/>
      <feOffset dy=".4"/>
      <feGaussianBlur stdDeviation=".1"/>
      <feComposite in2="hardAlpha" operator="arithmetic" k2="-1" k3="1"/>
      <feColorMatrix values="0 0 0 0 0 0 0 0 0 0 0 0 0 0 0 0 0 0 0.381058 0"/>
      <feBlend in2="effect1_innerShadow" result="effect2_innerShadow"/>
    </filter>
  </defs>

  <path filter="url(#drop-shadow)" d="M52.7 48.2c0-16 13-29 29-29h127c16 0 29 13 29 29l.1 316.4c0 16-13 29-29 29h-48.1l-.5-1.1H131l-.5 1H81.7c-16 0-29-13-29-29V48.2z" fill="#E3E8ED"/>
  <rect filter="url(#screen-shadow)" width="162.7" height="349.2" rx="15.2" transform="translate(63.9 32)" fill="#E3E8ED"/>
  <path filter="url(#f2)" d="M52.6 114.5H52c-.7 0-1.3.6-1.3 1.4v21.8c0 .8.6 1.4 1.3 1.4h.7v-24.6z" fill="#E3E7EC"/>
  <path filter="url(#f3)" d="M52.6 146.5H52c-.7 0-1.3.6-1.3 1.3v57.3c0 .7.6 1.3 1.3 1.3h.8v-60z" fill="#E3E7EC"/>
  <rect width="162.4" height="288.7" rx="1.3" transform="translate(63.7 63.8)" fill="#F2F2F4"/>
  <rect filter="url(#f4)" width="53.7" height="17.9" rx="8.9" transform="translate(118.7 359.5)" fill="#E3E8ED"/>
  <path filter="url(#f5)" d="M115.6 49.7a2.7 2.7 0 100-5.4 2.7 2.7 0 000 5.4z" fill="#CDD5DD"/>
  <rect filter="url(#f6)" width="33.9" height="6.5" rx="3.1" transform="translate(128.5 43.7)" fill="#CDD5DD"/>
</svg>
